svgs/light/square-divide.svg

<svg xmlns="http://www.w3.org/2000/svg" viewBox="0 0 448 512"><!-- Font Awesome Pro 6.0.0-alpha2 by @fontawesome - https://fontawesome.com License - https://fontawesome.com/license (Commercial License) --><path d="M224 184C237.254 184 248 173.254 248 160C248 146.744 237.254 136 224 136S200 146.744 200 160C200 173.254 210.746 184 224 184ZM224 328C210.746 328 200 338.744 200 352C200 365.254 210.746 376 224 376S248 365.254 248 352C248 338.744 237.254 328 224 328ZM320 240H128C119.156 240 112 247.156 112 256S119.156 272 128 272H320C328.844 272 336 264.844 336 256S328.844 240 320 240ZM384 32H64C28.654 32 0 60.654 0 96V416C0 451.346 28.654 480 64 480H384C419.346 480 448 451.346 448 416V96C448 60.654 419.346 32 384 32ZM416 416C416 433.645 401.645 448 384 448H64C46.355 448 32 433.645 32 416V96C32 78.355 46.355 64 64 64H384C401.645 64 416 78.355 416 96V416Z"/></svg>

<svg xmlns="http://www.w3.org/2000/svg" viewBox="0 0 448 512"><!--! Font Awesome Pro 6.0.0-alpha3 by @fontawesome - https://fontawesome.com License - https://fontawesome.com/license (Commercial License) --><path d="M224 184c13.25 0 24-10.75 24-24c0-13.26-10.75-24-24-24S200 146.7 200 160C200 173.3 210.7 184 224 184zM224 328c-13.25 0-24 10.74-24 24c0 13.25 10.75 24 24 24s24-10.75 24-24C248 338.7 237.3 328 224 328zM320 240H128C119.2 240 112 247.2 112 256S119.2 272 128 272h192c8.844 0 16-7.156 16-16S328.8 240 320 240zM384 32H64C28.65 32 0 60.65 0 96v320c0 35.35 28.65 64 64 64h320c35.35 0 64-28.65 64-64V96C448 60.65 419.3 32 384 32zM416 416c0 17.64-14.36 32-32 32H64c-17.64 0-32-14.36-32-32V96c0-17.64 14.36-32 32-32h320c17.64 0 32 14.36 32 32V416z"/></svg>
